assets/icons/24px/outline/command-24px.svg

<svg width="24" height="24" viewBox="0 0 24 24" fill="none" xmlns="http://www.w3.org/2000/svg">
<path d="M18.3 15.6L18.3 16.6L18.3 15.6ZM18.3 8.4L18.3 9.4L18.3 8.4ZM8.40001 9.39998H15.6V7.39998H8.40001V9.39998ZM9.40001 15.6V8.39998H7.40001V15.6H9.40001ZM15.6 14.6H8.40001V16.6H15.6V14.6ZM14.6 8.39998V15.6H16.6V8.39998H14.6ZM16.6 8.39998V5.7H14.6V8.39998H16.6ZM7.40001 5.7V8.39998H9.40001V5.7H7.40001ZM5.7 16.6H8.40001V14.6H5.7V16.6ZM15.6 16.6L18.3 16.6L18.3 14.6L15.6 14.6L15.6 16.6ZM16.6 18.3V15.6H14.6V18.3H16.6ZM18.3 7.4L15.6 7.39998L15.6 9.39998L18.3 9.4L18.3 7.4ZM8.40001 7.39998H5.69999V9.39998H8.40001V7.39998ZM9.40001 18.3V15.6H7.40001V18.3H9.40001ZM18.3 16.6C19.2389 16.6 20 17.3611 20 18.3H22C22 16.2566 20.3435 14.6 18.3 14.6L18.3 16.6ZM14.6 18.3C14.6 20.3435 16.2565 22 18.3 22L18.3 20C17.3611 20 16.6 19.2389 16.6 18.3H14.6ZM18.3 22C20.3434 22 22 20.3435 22 18.3H20C20 19.2389 19.2389 20 18.3 20L18.3 22ZM5.7 14.6C3.65655 14.6 2 16.2565 2 18.3H4C4 17.3611 4.76112 16.6 5.7 16.6V14.6ZM5.7 22C7.74346 22 9.40001 20.3435 9.40001 18.3H7.40001C7.40001 19.2389 6.63889 20 5.7 20V22ZM5.7 20C4.76112 20 4 19.2389 4 18.3H2C2 20.3435 3.65655 22 5.7 22V20ZM9.40001 5.7C9.40001 3.65655 7.74345 2 5.7 2V4C6.63889 4 7.40001 4.76112 7.40001 5.7H9.40001ZM5.7 2C3.65655 2 2 3.65654 2 5.69999H4C4 4.76112 4.76112 4 5.7 4V2ZM2 5.69999C2 7.74344 3.65654 9.39998 5.69999 9.39998V7.39998C4.76111 7.39998 4 6.63887 4 5.69999H2ZM16.6 5.7C16.6 4.76111 17.3611 4 18.3 4V2C16.2566 2 14.6 3.65655 14.6 5.7H16.6ZM22 5.7C22 3.65655 20.3435 2 18.3 2V4C19.2389 4 20 4.76111 20 5.7H22ZM18.3 9.4C20.3434 9.4 22 7.74345 22 5.7H20C20 6.63888 19.2389 7.4 18.3 7.4L18.3 9.4Z" fill="white"/>
</svg>

<svg width="24" height="24" fill="none" xmlns="http://www.w3.org/2000/svg"><path d="M18.3 15.6v1-1zm0-7.2v1-1zm-9.9 1h7.2v-2H8.4v2zm1 6.2V8.4h-2v7.2h2zm6.2-1H8.4v2h7.2v-2zm-1-6.2v7.2h2V8.4h-2zm2 0V5.7h-2v2.7h2zM7.4 5.7v2.7h2V5.7h-2zM5.7 16.6h2.7v-2H5.7v2zm9.9 0h2.7v-2h-2.7v2zm1 1.7v-2.7h-2v2.7h2zm1.7-10.9h-2.7v2h2.7v-2zm-9.9 0H5.7v2h2.7v-2zm1 10.9v-2.7h-2v2.7h2zm8.9-1.7a1.7 1.7 0 0 1 1.7 1.7h2a3.7 3.7 0 0 0-3.7-3.7v2zm-3.7 1.7a3.7 3.7 0 0 0 3.7 3.7v-2a1.7 1.7 0 0 1-1.7-1.7h-2zm3.7 3.7a3.7 3.7 0 0 0 3.7-3.7h-2a1.7 1.7 0 0 1-1.7 1.7v2zM5.7 14.6A3.7 3.7 0 0 0 2 18.3h2a1.7 1.7 0 0 1 1.7-1.7v-2zm0 7.4a3.7 3.7 0 0 0 3.7-3.7h-2A1.7 1.7 0 0 1 5.7 20v2zm0-2A1.7 1.7 0 0 1 4 18.3H2A3.7 3.7 0 0 0 5.7 22v-2zM9.4 5.7A3.7 3.7 0 0 0 5.7 2v2a1.7 1.7 0 0 1 1.7 1.7h2zM5.7 2A3.7 3.7 0 0 0 2 5.7h2A1.7 1.7 0 0 1 5.7 4V2zM2 5.7a3.7 3.7 0 0 0 3.7 3.7v-2A1.7 1.7 0 0 1 4 5.7H2zm14.6 0A1.7 1.7 0 0 1 18.3 4V2a3.7 3.7 0 0 0-3.7 3.7h2zm5.4 0A3.7 3.7 0 0 0 18.3 2v2A1.7 1.7 0 0 1 20 5.7h2zm-3.7 3.7A3.7 3.7 0 0 0 22 5.7h-2a1.7 1.7 0 0 1-1.7 1.7v2z" fill="#fff"/></svg>
